!!!OTL:
!!!ONR: No. 12
!! From Madeleine Beland,
!! "Chansons de Voyageurs, Coureurs de Bois et Forestiers"
!! Quebec: Les Presses de l'universite/ Laval, 1982
!! ISBN 2-7637-6942-X
**kern
*clefG2
*k[f#]
*M2/4
8d
=
8g
8f#
8e
8d
=
4g
8r
8g
=
4.a
16a
8b
8g
=
8e
8d
8d
8d
=
8g
8f#
8e
8d
=
4g
8r
8g
=
8a
8a
8b
8g
*M3/4
=
8e
8d
4d;
8r
8d
*M2/4
=
8g
8a
8b
8b
=
8a
8g
qg
4b
=
8a
8a
8e
8e
=
qe
4a;
8r
8d
=
8.g
16a
8b
8g
=
8e
8r
qe
4a
=
8f#
8f#
8e
8d
=
4g;
8r
8d
=
8.g
16a
8b
8g
=
8e
8r
8.a
16g
=
8f#
8f#
8.e
16d
=
4g;
8r
==
*-
